instagram_square.svg

<svg height="200" viewBox="0 0 200 200" width="200" xmlns="http://www.w3.org/2000/svg"><path d="m0 200v-200h200v200zm100-152.5c-14.26 0-16 .06-21.65.32a38.37 38.37 0 0 0 -12.74 2.44 26.78 26.78 0 0 0 -15.35 15.35 38.37 38.37 0 0 0 -2.44 12.74c-.26 5.6-.32 7.39-.32 21.65s.06 16 .32 21.65a38.37 38.37 0 0 0 2.44 12.74 26.78 26.78 0 0 0 15.35 15.35 38.37 38.37 0 0 0 12.74 2.44c5.6.26 7.39.32 21.65.32s16-.06 21.65-.32a38.37 38.37 0 0 0 12.74-2.44 26.78 26.78 0 0 0 15.35-15.35 38.37 38.37 0 0 0 2.44-12.74c.26-5.6.32-7.39.32-21.65s-.06-16-.32-21.65a38.37 38.37 0 0 0 -2.44-12.74 26.78 26.78 0 0 0 -15.35-15.35 38.37 38.37 0 0 0 -12.74-2.44c-5.6-.26-7.39-.32-21.65-.32zm0 9.5c14 0 15.68 0 21.21.31a29 29 0 0 1 9.75 1.8 17.4 17.4 0 0 1 10 10 29 29 0 0 1 1.8 9.75c.24 5.46.24 7.14.24 21.14s0 15.68-.31 21.21a29 29 0 0 1 -1.8 9.75 17.4 17.4 0 0 1 -10 10 29 29 0 0 1 -9.75 1.8c-5.53.26-7.19.31-21.21.31s-15.68 0-21.21-.31a29 29 0 0 1 -9.75-1.8 17.4 17.4 0 0 1 -10-10 29 29 0 0 1 -1.8-9.75c-.17-5.53-.17-7.21-.17-21.21s0-15.68.31-21.21a29 29 0 0 1 1.76-9.79 17.4 17.4 0 0 1 10-10 29 29 0 0 1 9.75-1.8c5.5-.2 7.18-.2 21.18-.2m0 16a27 27 0 1 0 27 27 27 27 0 0 0 -27-27zm0 44.46a17.5 17.5 0 1 1 17.5-17.46 17.51 17.51 0 0 1 -17.5 17.5zm34.32-45.46a6.3 6.3 0 1 1 -6.3-6.3 6.31 6.31 0 0 1 6.3 6.3z" fill-rule="evenodd"/></svg>

<svg xmlns="http://www.w3.org/2000/svg" width="200" height="200" viewBox="0 0 200 200"><title>instagram_square</title><path d="M0,200V0H200V200ZM100,47.5c-14.26,0-16,.06-21.65.32a38.37,38.37,0,0,0-12.74,2.44A26.78,26.78,0,0,0,50.26,65.61a38.37,38.37,0,0,0-2.44,12.74c-.26,5.6-.32,7.39-.32,21.65s.06,16,.32,21.65a38.37,38.37,0,0,0,2.44,12.74,26.78,26.78,0,0,0,15.35,15.35,38.37,38.37,0,0,0,12.74,2.44c5.6.26,7.39.32,21.65.32s16-.06,21.65-.32a38.37,38.37,0,0,0,12.74-2.44,26.78,26.78,0,0,0,15.35-15.35,38.37,38.37,0,0,0,2.44-12.74c.26-5.6.32-7.39.32-21.65s-.06-16-.32-21.65a38.37,38.37,0,0,0-2.44-12.74,26.78,26.78,0,0,0-15.35-15.35,38.37,38.37,0,0,0-12.74-2.44c-5.6-.26-7.39-.32-21.65-.32ZM100,57c14,0,15.68,0,21.21.31a29,29,0,0,1,9.75,1.8,17.4,17.4,0,0,1,10,10,29,29,0,0,1,1.8,9.75C143,84.32,143,86,143,100s0,15.68-.31,21.21a29,29,0,0,1-1.8,9.75,17.4,17.4,0,0,1-10,10,29,29,0,0,1-9.75,1.8c-5.53.26-7.19.31-21.21.31s-15.68,0-21.21-.31a29,29,0,0,1-9.75-1.8,17.4,17.4,0,0,1-10-10,29,29,0,0,1-1.8-9.75C57,115.68,57,114,57,100s0-15.68.31-21.21A29,29,0,0,1,59.07,69a17.4,17.4,0,0,1,10-10,29,29,0,0,1,9.75-1.8C84.32,57,86,57,100,57M100,73a27,27,0,1,0,27,27A27,27,0,0,0,100,73Zm0,44.46A17.5,17.5,0,1,1,117.5,100,17.51,17.51,0,0,1,100,117.5ZM134.32,72a6.3,6.3,0,1,1-6.3-6.3A6.31,6.31,0,0,1,134.32,72Z" fill-rule="evenodd"/></svg>
